X:7
T:K.V. 487/7
M:C
L:1/16
K:F major
V:1
F12 A4 | BAGA G4 z8 | G8 GABc edcB | cBAB A4 z8 | F2GA Bcde f2e2d2c2 | =B8 _B8 | .A2(A2B2c2 d2c2B2A2) | (c2>A2) G4 z8 ::
V:2
F4 C4 A,4 [K:clef=bass] F,4 | C,4 z2 C,2 (=B,,2C,2)(B,,2C,2) [K:clef=treble] | C4 G4 E4 C4 | F,4 z2 F,2 (E,2F,2)(E,2F,2) | F,4 z4 z8 | z2 (_A2G2F2 E2G2C2E2) | .E2(E2G2A2 B2A2G2F2) | (A2>F2) C4 C,4 z4 ::
V:1
c16 | B16 | AcBA Bcde fgab c'2A2 | (c2>A2) G4 z8 | F8 F2A2c2A2 | G2AB cdef g2e2c2B2 | A2f2c2A2 G2d2c2E2 | (G8F4) z4 :|]
V:2
z2 (C2=B,2C2) C,,2G2E2C2 | z2 (C2=B,2C2) C,2G2E2C2 | F4 z4 z4 A,2F,2 | C,4 C4 CDEF GABG | F4 C4 A,4 [K:clef=bass] F,4 | E,4 C,4 z4 [K:clef=treble] E4 | F4 [K:clef=bass] A,,4 B,,4 C,4 | C,8 F,,4 z4 :|]

